packages/crayons-core/src/components/icon/icon-assets/icons/copy.svg

<?xml version="1.0" encoding="UTF-8"?>
<svg width="14px" height="14px" viewBox="0 0 14 14" version="1.1" xmlns="http://www.w3.org/2000/svg" xmlns:xlink="http://www.w3.org/1999/xlink">
    <!-- Generator: Sketch 52.6 (67491) - http://www.bohemiancoding.com/sketch -->
    <title>icon/copy</title>
    <desc>Created with Sketch.</desc>
    <g id="Icons-✅" stroke="none" stroke-width="1" fill="none" fill-rule="evenodd">
        <g id="Icons" transform="translate(-655.000000, -2257.000000)" fill="currentColor">
            <g id="icon/copy" transform="translate(655.000000, 2257.000000)">
                <g id="copy">
                    <path d="M13.3,14 L4.15,14 C3.76340068,14 3.45,13.6865993 3.45,13.3 L3.45,4.15 C3.45537631,3.76564964 3.76564964,3.45537631 4.15,3.45 L13.3,3.45 C13.6865993,3.45 14,3.76340068 14,4.15 L14,13.3 C14,13.6865993 13.6865993,14 13.3,14 Z M4.85,12.6 L12.6,12.6 L12.6,4.85 L4.85,4.85 L4.85,12.6 Z M1.56,11.41 L0.7,11.41 C0.313400675,11.41 -2.08721929e-14,11.0965993 -2.22044605e-14,10.71 L-2.22044605e-14,0.7 C-2.22044605e-14,0.313400675 0.313400675,-1.59872116e-14 0.7,-1.59872116e-14 L9.85,-1.59872116e-14 C10.2365993,-1.59872116e-14 10.55,0.313400675 10.55,0.7 L10.55,1.56 C10.55,1.94659932 10.2365993,2.26 9.85,2.26 C9.46340068,2.26 9.15,1.94659932 9.15,1.56 L9.15,1.4 L1.4,1.4 L1.4,10 L1.56,10 C1.94659932,10 2.26,10.3134007 2.26,10.7 C2.26,11.0865993 1.94659932,11.4 1.56,11.4 L1.56,11.41 Z" id="Combined-Shape"></path>
                </g>
            </g>
        </g>
    </g>
</svg>

<svg viewBox="0 0 14 14"><path d="M13.3 14H4.15a.7.7 0 0 1-.7-.7V4.15a.71.71 0 0 1 .7-.7h9.15a.7.7 0 0 1 .7.7v9.15a.7.7 0 0 1-.7.7zm-8.45-1.4h7.75V4.85H4.85v7.75zm-3.29-1.19H.7a.7.7 0 0 1-.7-.7V.7A.7.7 0 0 1 .7 0h9.15a.7.7 0 0 1 .7.7v.86a.7.7 0 0 1-1.4 0V1.4H1.4V10h.16a.7.7 0 0 1 0 1.4v.01z" fill="currentColor" fill-rule="evenodd"/></svg>
